miniprogram/assets/figma/quick-refund.svg

<svg width="24" height="24" viewBox="0 0 24 24" fill="none" xmlns="http://www.w3.org/2000/svg">
<g clip-path="url(#clip0_205_964)">
<path d="M23.75 18C23.75 18.4142 23.4142 18.75 23 18.75H17.8107L19.5303 20.4697C19.8232 20.7626 19.8232 21.2374 19.5303 21.5303C19.2374 21.8232 18.7626 21.8232 18.4697 21.5303L15.4697 18.5303C15.329 18.3897 15.25 18.1989 15.25 18C15.25 17.8011 15.329 17.6103 15.4697 17.4697L18.4697 14.4697C18.7626 14.1768 19.2374 14.1768 19.5303 14.4697C19.8232 14.7626 19.8232 15.2374 19.5303 15.5303L17.8107 17.25H23C23.4142 17.25 23.75 17.5858 23.75 18Z" fill="#353566"/>
<path fill-rule="evenodd" clip-rule="evenodd" d="M5.7679 2.25L17.2321 2.25C18.0449 2.24999 18.7006 2.24999 19.2315 2.29336C19.7781 2.33803 20.2582 2.43239 20.7025 2.65873C21.4081 3.01825 21.9817 3.59193 22.3413 4.29754C22.5676 4.74176 22.662 5.2219 22.7066 5.76853C22.75 6.29944 22.75 6.95505 22.75 7.76788V11.6659C22.75 12.0801 22.4142 12.4159 22 12.4159C21.5858 12.4159 21.25 12.0801 21.25 11.6659V9.25H1.75L1.75 14.2C1.75 15.0525 1.75058 15.6467 1.78838 16.1093C1.82547 16.5632 1.8946 16.824 1.99524 17.0215C2.21095 17.4448 2.55516 17.7891 2.97852 18.0048C3.17604 18.1054 3.43681 18.1745 3.89068 18.2116C4.35331 18.2494 4.94754 18.25 5.8 18.25H12.4C12.8142 18.25 13.15 18.5858 13.15 19C13.15 19.4142 12.8142 19.75 12.4 19.75H5.76787C4.95504 19.75 4.29944 19.75 3.76853 19.7066C3.2219 19.662 2.74175 19.5676 2.29754 19.3413C1.59193 18.9818 1.01825 18.4081 0.658726 17.7025C0.432386 17.2582 0.338026 16.7781 0.293364 16.2315C0.249991 15.7006 0.249994 15.045 0.25 14.2323L0.25 7.7679C0.249993 6.95506 0.249987 6.29944 0.293364 5.76853C0.338027 5.2219 0.432385 4.74176 0.658726 4.29754C1.01825 3.59193 1.59193 3.01825 2.29754 2.65873C2.74176 2.43239 3.2219 2.33803 3.76853 2.29336C4.29943 2.24999 4.95508 2.24999 5.7679 2.25ZM1.75 7.75H21.25C21.25 6.92422 21.2487 6.34421 21.2116 5.89068C21.1745 5.43681 21.1054 5.17604 21.0048 4.97852C20.789 4.55516 20.4448 4.21095 20.0215 3.99524C19.824 3.8946 19.5632 3.82547 19.1093 3.78838C18.6467 3.75058 18.0525 3.75 17.2 3.75H5.8C4.94755 3.75 4.35331 3.75058 3.89068 3.78838C3.43681 3.82547 3.17604 3.8946 2.97852 3.99524C2.55516 4.21095 2.21095 4.55516 1.99524 4.97852C1.8946 5.17604 1.82547 5.43681 1.78838 5.89068C1.75133 6.34421 1.75004 6.92422 1.75 7.75Z" fill="#353566"/>
<path d="M4.25 14.5C4.25 14.0858 4.58579 13.75 5 13.75H9.5C9.91421 13.75 10.25 14.0858 10.25 14.5C10.25 14.9142 9.91421 15.25 9.5 15.25H5C4.58579 15.25 4.25 14.9142 4.25 14.5Z" fill="#353566"/>
</g>
<defs>
<clipPath id="clip0_205_964">
<rect width="24" height="24" fill="white"/>
</clipPath>
</defs>
</svg>

<svg xmlns="http://www.w3.org/2000/svg" width="24" height="24" fill="none" viewBox="0 0 24 24"><g fill="#353566" clip-path="url(#a)"><path d="M23.75 18a.75.75 0 0 1-.75.75h-5.19l1.72 1.72a.75.75 0 1 1-1.06 1.06l-3-3a.75.75 0 0 1 0-1.06l3-3a.75.75 0 1 1 1.06 1.06l-1.72 1.72H23a.75.75 0 0 1 .75.75"/><path fill-rule="evenodd" d="M5.768 2.25h11.464c.813 0 1.469 0 2 .043.546.045 1.026.14 1.47.366a3.75 3.75 0 0 1 1.64 1.639c.226.444.32.924.365 1.47.043.531.043 1.187.043 2v3.898a.75.75 0 0 1-1.5 0V9.25H1.75v4.95c0 .853 0 1.447.038 1.91.037.453.107.714.207.912.216.423.56.767.984.983.197.1.458.17.912.207.462.037 1.057.038 1.909.038h6.6a.75.75 0 0 1 0 1.5H5.768c-.813 0-1.469 0-2-.043-.546-.045-1.026-.14-1.47-.366a3.75 3.75 0 0 1-1.64-1.639c-.226-.444-.32-.924-.365-1.47-.043-.531-.043-1.187-.043-2V7.768c0-.813 0-1.469.043-2 .045-.546.14-1.026.366-1.47a3.75 3.75 0 0 1 1.639-1.64c.444-.226.924-.32 1.47-.365.531-.043 1.187-.043 2-.043M1.75 7.75h19.5c0-.826-.001-1.406-.038-1.86-.038-.453-.107-.714-.207-.911a2.25 2.25 0 0 0-.983-.984c-.198-.1-.459-.17-.913-.207-.462-.037-1.057-.038-1.909-.038H5.8c-.852 0-1.447 0-1.91.038-.453.037-.714.107-.911.207a2.25 2.25 0 0 0-.984.984c-.1.197-.17.458-.207.912-.037.453-.038 1.033-.038 1.859" clip-rule="evenodd"/><path d="M4.25 14.5a.75.75 0 0 1 .75-.75h4.5a.75.75 0 0 1 0 1.5H5a.75.75 0 0 1-.75-.75"/></g><defs><clipPath id="a"><path fill="#fff" d="M0 0h24v24H0z"/></clipPath></defs></svg>
